X: 56
T:Fife Hunt. JaW.056
M:C|
L:1/8
Q:1/4=180
C:"..Play the latter part for once only"
S:James Winder Ms, Lancashire, 1835-41
R:Reel
O:England
A:Wyresdale,Lancashire
N:..even though the MS shows :||: after the first measure. CGP
H:1/8
Z:vmp.Chris Partington, Aug 2004
K:C
f|ecc2 GEE2|Dddc d2df|ecc2 GEE2|CccB c3:|!
|f|ecgc acgc|Dddc d2df|ecgc acgc|GccB c2df|!
ecgc acgc|Dddc d2df|ecgc acgc|GccB c3|]
